Newaita-dark/actions/22/object-rotate-right.svg

<svg height="22" viewBox="0 0 22 22" width="22" xmlns="http://www.w3.org/2000/svg"><g fill="#e0e0e0"><path d="m18.191406 1.992188c1.007813 0 1.820313.808593 1.820313 1.816406v6.367187c0 1.007813-.8125 1.820313-1.820313 1.820313h-3.636718c-1.007813 0-1.820313-.8125-1.820313-1.820313v-6.367187c0-1.007813.8125-1.816406 1.820313-1.816406zm0 0"/><path d="m1.820312 14.726562c0-1.007812.808594-1.820312 1.816407-1.820312h6.367187c1.007813 0 1.820313.8125 1.820313 1.820312v3.636719c0 1.007813-.8125 1.820313-1.820313 1.820313h-6.367187c-1.007813 0-1.816407-.8125-1.816407-1.820313zm1.816407.910157v1.816406c0 .503906.40625.910156.910156.910156h4.550781c.503906 0 .90625-.40625.90625-.910156v-1.816406c0-.503907-.402344-.910157-.90625-.910157h-4.550781c-.503906 0-.910156.40625-.910156.910157zm0 0"/><path d="m10.914062 6.042969v2.105469c-1.171874.761718-2.175781 1.765624-2.9375 2.9375h-2.105468c1.121094-2.15625 2.886718-3.921876 5.042968-5.042969zm0 0"/></g></svg>

<svg xmlns="http://www.w3.org/2000/svg" xmlns:xlink="http://www.w3.org/1999/xlink" width="22px" height="22px" viewBox="0 0 22 22" version="1.1">
<g id="surface1">
     <defs>
  <style id="current-color-scheme" type="text/css">
   .ColorScheme-Text { color:#eeeeee; } .ColorScheme-Highlight { color:#424242; }
  </style>
 </defs>
<path style="fill:currentColor" class="ColorScheme-Text" d="M 18.191406 1.992188 C 19.199219 1.992188 20.011719 2.800781 20.011719 3.808594 L 20.011719 10.175781 C 20.011719 11.183594 19.199219 11.996094 18.191406 11.996094 L 14.554688 11.996094 C 13.546875 11.996094 12.734375 11.183594 12.734375 10.175781 L 12.734375 3.808594 C 12.734375 2.800781 13.546875 1.992188 14.554688 1.992188 Z M 18.191406 1.992188 "/>
     <defs>
  <style id="current-color-scheme" type="text/css">
   .ColorScheme-Text { color:#eeeeee; } .ColorScheme-Highlight { color:#424242; }
  </style>
 </defs>
<path style="fill:currentColor" class="ColorScheme-Text" d="M 1.820312 14.726562 C 1.820312 13.71875 2.628906 12.90625 3.636719 12.90625 L 10.003906 12.90625 C 11.011719 12.90625 11.824219 13.71875 11.824219 14.726562 L 11.824219 18.363281 C 11.824219 19.371094 11.011719 20.183594 10.003906 20.183594 L 3.636719 20.183594 C 2.628906 20.183594 1.820312 19.371094 1.820312 18.363281 Z M 3.636719 15.636719 L 3.636719 17.453125 C 3.636719 17.957031 4.042969 18.363281 4.546875 18.363281 L 9.097656 18.363281 C 9.601562 18.363281 10.003906 17.957031 10.003906 17.453125 L 10.003906 15.636719 C 10.003906 15.132812 9.601562 14.726562 9.097656 14.726562 L 4.546875 14.726562 C 4.042969 14.726562 3.636719 15.132812 3.636719 15.636719 Z M 3.636719 15.636719 "/>
     <defs>
  <style id="current-color-scheme" type="text/css">
   .ColorScheme-Text { color:#eeeeee; } .ColorScheme-Highlight { color:#424242; }
  </style>
 </defs>
<path style="fill:currentColor" class="ColorScheme-Text" d="M 10.914062 6.042969 L 10.914062 8.148438 C 9.742188 8.910156 8.738281 9.914062 7.976562 11.085938 L 5.871094 11.085938 C 6.992188 8.929688 8.757812 7.164062 10.914062 6.042969 Z M 10.914062 6.042969 "/>
</g>
</svg>
